flaticon/household/iron.svg

<svg xmlns="http://www.w3.org/2000/svg" width="32" height="32" viewBox="0 0 24 24">
    <path d="M 23.601562 16.800781 L 23.289062 16.800781 L 23.472656 15.875 C 23.828125 14.09375 23.621094 12.277344 22.871094 10.621094 C 22.800781 10.464844 22.636719 10.371094 22.464844 10.390625 C 22.152344 10.425781 21.765625 10.40625 21.261719 10.023438 C 20.734375 9.621094 20.4375 9.042969 20.472656 8.484375 C 20.523438 7.664062 21.121094 6.988281 21.929688 6.832031 C 22.140625 6.792969 22.28125 6.59375 22.25 6.378906 L 22.0625 5.140625 C 22.046875 5.035156 21.992188 4.941406 21.90625 4.878906 C 21.820312 4.8125 21.710938 4.785156 21.605469 4.804688 L 16 5.679688 L 16 5.199219 C 16 4.980469 15.820312 4.800781 15.601562 4.800781 L 13.601562 4.800781 C 13.378906 4.800781 13.199219 4.980469 13.199219 5.199219 L 13.199219 6.332031 C 12.378906 6.613281 11.570312 6.976562 10.800781 7.425781 L 10.800781 7.257812 C 10.800781 6.785156 10.414062 6.398438 9.945312 6.398438 L 8.855469 6.398438 C 8.382812 6.398438 8 6.785156 8 7.257812 L 8 9.601562 C 8 9.621094 8.007812 9.640625 8.011719 9.660156 C 6.886719 10.890625 6.027344 12.394531 5.640625 14.175781 C 4.21875 14.625 3.082031 15.023438 1.980469 16.492188 L 1.765625 16.824219 C 1.140625 16.976562 0.65625 17.695312 0.378906 18.109375 L 0.0664062 18.578125 C -0.015625 18.703125 -0.0234375 18.859375 0.046875 18.988281 C 0.117188 19.117188 0.253906 19.199219 0.398438 19.199219 L 23.601562 19.199219 C 23.820312 19.199219 24 19.019531 24 18.800781 L 24 17.199219 C 24 16.980469 23.820312 16.800781 23.601562 16.800781 Z M 14 5.601562 L 15.199219 5.601562 L 15.199219 5.808594 C 15.089844 5.828125 14.976562 5.855469 14.863281 5.878906 C 14.78125 5.894531 14.699219 5.910156 14.617188 5.925781 C 14.496094 5.957031 14.375 5.988281 14.253906 6.019531 C 14.167969 6.042969 14.085938 6.058594 14 6.082031 Z M 8.800781 7.257812 C 8.800781 7.226562 8.824219 7.199219 8.855469 7.199219 L 9.945312 7.199219 C 9.972656 7.199219 10 7.226562 10 7.257812 L 10 7.921875 C 9.578125 8.214844 9.175781 8.527344 8.800781 8.867188 Z M 6.046875 14.886719 L 6.121094 14.863281 C 6.269531 14.816406 6.378906 14.6875 6.398438 14.53125 C 6.402344 14.496094 6.402344 14.464844 6.402344 14.4375 C 7.207031 10.558594 10.417969 8.054688 13.734375 7 C 14.019531 6.910156 14.300781 6.832031 14.582031 6.761719 C 14.621094 6.75 14.664062 6.738281 14.703125 6.730469 C 15 6.660156 15.292969 6.601562 15.582031 6.554688 L 15.660156 6.542969 L 21.332031 5.65625 L 21.40625 6.148438 C 20.433594 6.488281 19.738281 7.382812 19.675781 8.4375 C 19.621094 9.261719 20.035156 10.09375 20.78125 10.660156 C 21.253906 11.019531 21.726562 11.195312 22.25 11.199219 C 22.84375 12.636719 22.992188 14.191406 22.6875 15.71875 L 22.472656 16.800781 L 2.75 16.800781 C 3.6875 15.628906 4.636719 15.332031 6.046875 14.886719 Z M 23.199219 18.398438 L 1.148438 18.398438 C 1.515625 17.875 1.796875 17.605469 1.992188 17.597656 C 1.992188 17.597656 1.996094 17.601562 2 17.601562 L 23.199219 17.601562 Z M 23.199219 18.398438"/>
    <path d="M 19.660156 10.691406 C 19.101562 10.015625 18.824219 9.199219 18.875 8.386719 C 18.886719 8.230469 18.90625 8.078125 18.933594 7.929688 L 19.046875 7.367188 C 19.074219 7.242188 19.035156 7.109375 18.941406 7.011719 C 18.851562 6.917969 18.722656 6.875 18.59375 6.894531 L 15.703125 7.347656 C 13.125 7.75 10.300781 9.738281 9.242188 11.886719 L 8.621094 12.519531 C 8.5 12.640625 8.472656 12.824219 8.546875 12.976562 C 8.613281 13.113281 8.753906 13.199219 8.90625 13.199219 C 8.921875 13.199219 8.933594 13.199219 8.949219 13.199219 L 19.9375 11.996094 C 20.085938 11.980469 20.210938 11.886719 20.265625 11.75 C 20.320312 11.613281 20.296875 11.457031 20.203125 11.34375 Z M 13.269531 11.921875 L 13.269531 10.800781 L 16.867188 10.800781 L 16.867188 11.527344 L 14.101562 11.828125 Z M 17.667969 11.441406 L 17.667969 10.398438 C 17.667969 10.179688 17.488281 10 17.269531 10 L 12.867188 10 C 12.648438 10 12.46875 10.179688 12.46875 10.398438 L 12.46875 12.007812 L 9.941406 12.285156 C 10.859375 10.359375 13.5 8.5 15.828125 8.136719 L 18.152344 7.773438 C 18.113281 7.957031 18.089844 8.144531 18.078125 8.335938 C 18.015625 9.351562 18.355469 10.371094 19.042969 11.199219 L 19.113281 11.28125 Z M 17.667969 11.441406"/>
</svg>

<svg xmlns="http://www.w3.org/2000/svg" width="32" height="32" viewBox="0 0 24 24">
    <path d="M23.602 16.8h-.313l.184-.925a8.588 8.588 0 0 0-.602-5.254.396.396 0 0 0-.406-.23c-.313.035-.7.015-1.203-.368-.528-.402-.825-.98-.79-1.539.051-.82.65-1.496 1.458-1.652a.4.4 0 0 0 .32-.453l-.188-1.238a.391.391 0 0 0-.156-.262.38.38 0 0 0-.3-.074L16 5.68V5.2a.4.4 0 0 0-.398-.4h-2a.401.401 0 0 0-.403.4v1.132c-.82.281-1.629.645-2.398 1.094v-.168a.861.861 0 0 0-.856-.86h-1.09a.859.859 0 0 0-.855.86v2.344c0 .02.008.039.012.058-1.125 1.23-1.985 2.735-2.371 4.516-1.422.449-2.559.847-3.66 2.316l-.215.332c-.625.153-1.11.871-1.387 1.285l-.313.47a.397.397 0 0 0-.02.41c.071.128.208.21.352.21h23.204a.4.4 0 0 0 .398-.398v-1.602a.4.4 0 0 0-.398-.398zM14 5.603h1.2v.207c-.11.02-.223.046-.337.07l-.246.047-.363.094c-.086.023-.168.039-.254.062zM8.8 7.258c0-.031.024-.059.055-.059h1.09c.028 0 .055.028.055.059v.664c-.422.293-.824.605-1.2.945zm-2.753 7.629l.074-.024a.4.4 0 0 0 .277-.332c.004-.035.004-.066.004-.094.805-3.878 4.016-6.382 7.332-7.437a14.565 14.565 0 0 1 .97-.27c.296-.07.589-.128.878-.175l.078-.012 5.672-.887.074.492a2.589 2.589 0 0 0-1.73 2.29c-.055.824.36 1.656 1.105 2.222.473.36.946.535 1.469.54a7.78 7.78 0 0 1 .438 4.519l-.215 1.082H2.75c.938-1.172 1.887-1.469 3.297-1.914zm17.152 3.511H1.15c.367-.523.648-.793.843-.8 0 0 .004.004.008.004h21.2zm0 0"/>
    <path d="M19.66 10.691c-.558-.675-.836-1.492-.785-2.304.012-.157.031-.309.059-.457l.113-.563a.393.393 0 0 0-.106-.355.397.397 0 0 0-.347-.117l-2.89.453c-2.579.402-5.403 2.39-6.462 4.539l-.62.633a.398.398 0 0 0 .284.68h.043l10.989-1.204a.395.395 0 0 0 .328-.246.403.403 0 0 0-.063-.406zm-6.39 1.23v-1.12h3.597v.726l-2.765.301zm4.398-.48v-1.043A.4.4 0 0 0 17.27 10h-4.403a.4.4 0 0 0-.398.398v1.61l-2.528.277C10.86 10.36 13.5 8.5 15.828 8.137l2.324-.364a3.82 3.82 0 0 0-.074.563c-.062 1.016.277 2.035.965 2.863l.07.082zm0 0"/>
</svg>
